assets/Face with steam from nose/Flat/face_with_steam_from_nose_flat.svg

<svg width="32" height="32" viewBox="0 0 32 32" fill="none" xmlns="http://www.w3.org/2000/svg">
<path d="M15.9989 30.9978C25.3333 30.9978 29.9978 24.7303 29.9978 16.9989C29.9978 9.26751 25.3333 3 15.9989 3C6.66443 3 2 9.26751 2 16.9989C2 24.7303 6.66443 30.9978 15.9989 30.9978Z" fill="#FFB02E"/>
<path d="M13.0181 8.63344C12.6443 7.28355 11.2037 6.57534 9.71424 7.28173C9.46474 7.40006 9.16655 7.29373 9.04822 7.04423C8.92989 6.79472 9.03622 6.49653 9.28572 6.3782C11.2963 5.42463 13.4307 6.37636 13.9818 8.36655C14.0555 8.63268 13.8996 8.90816 13.6334 8.98186C13.3673 9.05556 13.0918 8.89957 13.0181 8.63344Z" fill="#402A32"/>
<path d="M13.5547 11.1679C14.0142 11.4743 14.1384 12.0951 13.832 12.5547C13.1516 13.5753 12.0157 14.1916 10.8836 14.4181C9.75148 14.6445 8.46589 14.5124 7.44528 13.832C6.98576 13.5257 6.86158 12.9048 7.16793 12.4453C7.47429 11.9857 8.09516 11.8616 8.55468 12.1679C9.03408 12.4875 9.74849 12.6055 10.4914 12.4569C11.2342 12.3083 11.8483 11.9247 12.1679 11.4453C12.4743 10.9857 13.0952 10.8616 13.5547 11.1679Z" fill="#402A32"/>
<path d="M20.2455 22.6997C17.897 20.3683 14.0992 20.3764 11.7584 22.7258C11.3686 23.117 10.7355 23.1182 10.3442 22.7284C9.95298 22.3386 9.95183 21.7054 10.3416 21.3141C13.4609 18.1835 18.523 18.1716 21.6545 21.2803C22.0465 21.6694 22.0488 22.3025 21.6597 22.6945C21.2706 23.0864 20.6375 23.0887 20.2455 22.6997Z" fill="#402A32"/>
<path d="M18.1679 12.5547C17.8616 12.0951 17.9858 11.4743 18.4453 11.1679C18.9048 10.8616 19.5257 10.9857 19.832 11.4453C20.1516 11.9247 20.7657 12.3083 21.5086 12.4569C22.2515 12.6055 22.9659 12.4875 23.4453 12.1679C23.9048 11.8616 24.5257 11.9857 24.832 12.4453C25.1384 12.9048 25.0142 13.5257 24.5547 13.832C23.5341 14.5124 22.2485 14.6445 21.1164 14.4181C19.9842 14.1916 18.8483 13.5753 18.1679 12.5547Z" fill="#402A32"/>
<path d="M22.2857 7.28173C20.7963 6.57534 19.3557 7.28355 18.9818 8.63344C18.9081 8.89957 18.6327 9.05556 18.3665 8.98186C18.1004 8.90816 17.9444 8.63268 18.0181 8.36655C18.5693 6.37636 20.7037 5.42463 22.7142 6.3782C22.9637 6.49653 23.0701 6.79472 22.9518 7.04423C22.8334 7.29373 22.5352 7.40006 22.2857 7.28173Z" fill="#402A32"/>
<path d="M13.1144 17.1314L8.42958 19.9423C7.96102 20.2234 7.3616 20.0583 6.93933 19.7108C6.69212 19.501 6.41894 19.3375 6.13128 19.2206C5.79498 19.0836 5.42823 19.0058 5.04399 19.0003C5.01539 18.9999 4.98678 18.9999 4.95817 19.0003C4.17709 19.011 3.46812 19.3202 2.94018 19.8189C2.87 19.8852 2.80303 19.9549 2.7395 20.0276C3.7858 22.7866 8.66188 24.6334 8.66188 24.6334C8.66188 24.6334 13.5409 19.4349 14 17.2152C13.7731 17.0129 13.4283 16.943 13.1144 17.1314Z" fill="white"/>
<path d="M18.8856 17.1314L23.5704 19.9423C24.039 20.2234 24.6384 20.0583 25.0607 19.7108C25.3079 19.5009 25.5811 19.3375 25.8687 19.2206C26.205 19.0836 26.5718 19.0058 26.956 19.0003C26.9846 18.9999 27.0132 18.9999 27.0418 19.0003C27.8235 19.011 28.533 19.3206 29.0611 19.8201C29.1468 19.9012 29.2279 19.9874 29.3036 20.0781C26.0572 23.0105 23.426 24.0475 23.426 24.0475C23.426 24.0475 18.8856 19.9423 18 17.2152C18.227 17.0129 18.5717 16.943 18.8856 17.1314Z" fill="white"/>
<path d="M7.87596 24.8815C7.33466 25.4242 7 26.1731 7 27.0001C7 28.657 8.34315 30.0001 10 30.0001C11.2307 30.0001 12.2883 29.2591 12.7509 28.1989C12.9076 27.8398 12.9961 27.444 12.9999 27.0281C13.0001 27.0054 13 26.9828 12.9997 26.9601C12.9949 26.5868 12.9218 26.23 12.7925 25.9015C12.6692 25.5877 12.4911 25.2906 12.2581 25.0247C11.9588 24.6714 11.7945 24.1919 11.9631 23.761L14.1987 18.0479C14.326 17.7225 14.2167 17.4085 14 17.2153L7.5 24.5001L7.87863 24.8787L7.87596 24.8815Z" fill="#E6E6E6"/>
<path d="M20.0368 29.2687C19.7004 28.9773 19.4295 28.6124 19.249 28.1989C19.0917 27.8384 19.0032 27.441 19 27.0233C18.9999 27.0022 18.9999 26.9812 19.0002 26.9601C19.0051 26.5866 19.0782 26.2296 19.2077 25.9009C19.3309 25.5874 19.509 25.2904 19.7419 25.0247C20.0412 24.6714 20.2054 24.1919 20.0368 23.761L17.8013 18.0479C17.6739 17.7225 17.7833 17.4085 18 17.2153L24.5 24.5001C24.5 24.5001 22.6986 26.3381 20.0368 29.2687Z" fill="#E6E6E6"/>
<path d="M7.11866 24.1239C7.05146 24.1862 6.95346 24.0983 6.99431 24.0138C7.53491 22.8964 7.34157 21.5131 6.41427 20.5858C5.48698 19.6585 4.10367 19.4651 2.98621 20.0057C2.90062 20.0471 2.81151 19.9459 2.87874 19.8787C1.70717 21.0502 1.70717 22.9496 2.87874 24.1212C4.04941 25.2919 5.94687 25.2928 7.11866 24.1239Z" fill="#D3D3D3"/>
<path d="M24.8814 24.1239C24.9486 24.1861 25.0465 24.0983 25.0057 24.0138C24.4651 22.8964 24.6584 21.5131 25.5857 20.5858C26.513 19.6585 27.8963 19.4651 29.0138 20.0057C29.0994 20.0471 29.1885 19.9459 29.1213 19.8787C30.2928 21.0502 30.2928 22.9496 29.1213 24.1212C27.9506 25.2919 26.0532 25.2928 24.8814 24.1239Z" fill="#D3D3D3"/>
<path d="M12.1192 29.1234C10.9474 30.2928 9.04955 30.292 7.87872 29.1212C6.70714 27.9496 6.70714 26.0501 7.87872 24.8786C7.81148 24.9458 7.9006 25.0471 7.98619 25.0057C8.19062 24.9068 8.40395 24.8325 8.62175 24.7827C8.93538 24.7525 9.25546 24.7331 9.57893 24.7206C10.2488 24.7844 10.9013 25.0728 11.4142 25.5857C12.3415 26.513 12.5349 27.8963 11.9943 29.0138C11.9533 29.0985 12.0519 29.1866 12.1192 29.1234Z" fill="#D3D3D3"/>
<path d="M20.5858 25.5857C21.148 25.0235 21.8778 24.7311 22.6144 24.7085C22.8641 24.7262 23.12 24.7525 23.3827 24.7837C23.5989 24.8335 23.8108 24.9075 24.0138 25.0057C24.0994 25.0471 24.1885 24.9458 24.1213 24.8786C25.2929 26.0501 25.2929 27.9496 24.1213 29.1212C22.9505 30.292 21.0526 30.2928 19.8809 29.1234C19.9481 29.1866 20.0467 29.0985 20.0057 29.0138C19.4651 27.8963 19.6585 26.513 20.5858 25.5857Z" fill="#D3D3D3"/>
<path d="M3.31802 28.6819C5.07538 30.4393 7.92462 30.4393 9.68198 28.6819C11.1473 26.172 10.9941 24.4905 9.23679 22.7332C7.47943 20.9758 5.71607 20.8227 3.31802 22.3179C1.56066 24.0753 1.56066 26.9245 3.31802 28.6819Z" fill="#C9C9C9"/>
<path d="M28.682 28.6819C26.9246 30.4393 24.0754 30.4393 22.318 28.6819C21.0271 26.5541 20.8527 24.4905 22.61 22.7331C24.3674 20.9758 26.431 20.9045 28.682 22.3179C30.4393 24.0753 30.4393 26.9245 28.682 28.6819Z" fill="#C9C9C9"/>
<path d="M9.68199 28.6819C9.63523 28.7287 9.56457 28.6641 9.5999 28.6082C10.699 26.8691 10.4907 24.5409 8.97488 23.0251C7.45906 21.5092 5.13087 21.3009 3.39174 22.4C3.33584 22.4354 3.27127 22.3647 3.31803 22.318C5.07539 20.5606 7.92463 20.5606 9.68199 22.318C11.4394 24.0753 11.4394 26.9246 9.68199 28.6819Z" fill="white"/>
<path d="M22.318 28.6819C22.3648 28.7287 22.4354 28.6641 22.4001 28.6082C21.301 26.8691 21.5093 24.5409 23.0251 23.0251C24.5409 21.5092 26.8691 21.3009 28.6083 22.4C28.6642 22.4354 28.7287 22.3647 28.682 22.318C26.9246 20.5606 24.0754 20.5606 22.318 22.318C20.5607 24.0753 20.5607 26.9246 22.318 28.6819Z" fill="white"/>
</svg>

<svg xmlns="http://www.w3.org/2000/svg" width="32" height="32" fill="none"><path fill="#FFB02E" d="M15.999 30.998c9.334 0 13.999-6.268 13.999-14 0-7.73-4.665-13.998-14-13.998C6.665 3 2 9.268 2 16.999c0 7.731 4.664 13.999 13.999 13.999Z"/><path fill="#402A32" d="M13.018 8.633c-.374-1.35-1.814-2.058-3.304-1.351a.5.5 0 1 1-.428-.904c2.01-.953 4.145-.002 4.696 1.989a.5.5 0 1 1-.964.266ZM13.555 11.168a1 1 0 0 1 .277 1.387c-.68 1.02-1.816 1.637-2.948 1.863-1.133.227-2.418.094-3.439-.586a1 1 0 1 1 1.11-1.664c.48.32 1.193.438 1.936.289.743-.149 1.357-.532 1.677-1.012a1 1 0 0 1 1.387-.277ZM20.245 22.7a6.007 6.007 0 0 0-8.487.026 1 1 0 0 1-1.416-1.412 8.007 8.007 0 0 1 11.312-.034 1 1 0 1 1-1.409 1.42ZM18.168 12.555a1 1 0 0 1 1.664-1.11c.32.48.934.863 1.677 1.012.742.148 1.457.03 1.936-.29a1 1 0 0 1 1.11 1.665c-1.02.68-2.306.813-3.439.586-1.132-.226-2.268-.843-2.948-1.863ZM22.286 7.282c-1.49-.707-2.93.002-3.304 1.351a.5.5 0 1 1-.964-.266c.551-1.99 2.686-2.942 4.696-1.989a.5.5 0 1 1-.428.904Z"/><path fill="#fff" d="M13.114 17.131 8.43 19.942c-.469.281-1.068.116-1.49-.231A2.984 2.984 0 0 0 4.957 19a2.99 2.99 0 0 0-2.219 1.027c1.047 2.759 5.923 4.605 5.923 4.605S13.54 19.435 14 17.215a.738.738 0 0 0-.886-.084ZM18.886 17.131l4.684 2.811c.469.281 1.068.116 1.49-.231a2.982 2.982 0 0 1 1.982-.71 2.99 2.99 0 0 1 2.262 1.077c-3.247 2.933-5.878 3.97-5.878 3.97s-4.54-4.106-5.426-6.833a.738.738 0 0 1 .886-.084Z"/><path fill="#E6E6E6" d="M7.876 24.881a3 3 0 1 0 4.382.143c-.3-.353-.463-.832-.295-1.263l2.236-5.713a.736.736 0 0 0-.199-.833L7.5 24.5l.379.379-.003.002ZM20.037 29.269A2.99 2.99 0 0 1 19 26.96a2.99 2.99 0 0 1 .742-1.935c.3-.354.463-.833.295-1.264L17.8 18.048a.736.736 0 0 1 .199-.833l6.5 7.285s-1.801 1.838-4.463 4.769Z"/><path fill="#D3D3D3" d="M7.119 24.124c-.068.062-.166-.026-.125-.11a3.001 3.001 0 0 0-4.008-4.008c-.085.041-.174-.06-.107-.127a3 3 0 0 0 4.24 4.245ZM24.881 24.124c.068.062.166-.026.125-.11a3.001 3.001 0 0 1 4.008-4.008c.085.041.175-.06.107-.127a3 3 0 0 1-4.24 4.245ZM12.12 29.123a3 3 0 0 1-4.241-4.244c-.068.067.022.168.107.127.205-.1.418-.174.636-.223.313-.03.633-.05.957-.062a3.001 3.001 0 0 1 2.415 4.293c-.04.085.058.173.125.11ZM20.586 25.586a2.99 2.99 0 0 1 2.028-.877c.25.017.506.044.769.075.216.05.428.123.63.222.086.041.175-.06.108-.127a3 3 0 0 1-4.24 4.244c.067.064.166-.024.125-.11a3.001 3.001 0 0 1 .58-3.427Z"/><path fill="#C9C9C9" d="M3.318 28.682a4.5 4.5 0 0 0 6.364 0c1.465-2.51 1.312-4.191-.445-5.949-1.758-1.757-3.52-1.91-5.919-.415a4.5 4.5 0 0 0 0 6.364ZM28.682 28.682a4.5 4.5 0 0 1-6.364 0c-1.29-2.128-1.465-4.191.292-5.949 1.757-1.757 3.821-1.829 6.072-.415a4.5 4.5 0 0 1 0 6.364Z"/><path fill="#fff" d="M9.682 28.682c-.047.047-.117-.018-.082-.074A4.502 4.502 0 0 0 3.392 22.4c-.056.035-.12-.035-.074-.082a4.5 4.5 0 1 1 6.364 6.364ZM22.318 28.682c.047.047.117-.018.082-.074a4.502 4.502 0 0 1 6.208-6.208c.056.035.12-.035.074-.082a4.5 4.5 0 1 0-6.364 6.364Z"/></svg>
